X: 101
T: Tristram Shandy 
%%VWML:Thompsons1762-2277a-p51-0 
F:http://www.vwml.org/record/Thompsons1762/2277a/p51
Z: 2014 John Chambers <jc:trillian.mit.edu>
B: Thompson "Twenty four Country Dances for the Year 1762" p.51 #1
F: http://www.vwml.org/browse/browse-collections-dance-tune-books/browse-thompsons1762# 2014 -8-11
M: 2/4
L: 1/8
K: Bb
(Bc) |\
(dB)(Bg) | (gf)(ed) | (ed)(cB) | (cF)(Fd) |\
(dB)(Bg) | (gf)(bf) | (dB)(FA) | B2 :|
|: TFE |\
DFBd | fdbf | dBFD | EC-CE |\
DFBd | fdbf | dBFA | B4 :|
%-------------------------
%%begintext align
%% Right hands across .|. left back again :|. Set and
%% change sides .|: the same back again :|: Set across
%% and turn .|. your Partner do the same .|: lead down &
%% up again & cast off :|. lead thro the bottom & cast up :|:
%%endtext
%-------------------------
T: the Month of March
%R: reel
Z: 2014 John Chambers <jc:trillian.mit.edu>
B: Thompson "Twenty four Country Dances for the Year 1762" p.51 #2
F: http://www.vwml.org/browse/browse-collections-dance-tune-books/browse-thompsons1762# 2014 -8-11
M: 2/4
L: 1/8
K: A
|:\
Acec | aedc | fgaf | ecTBA |\
Acec | fgaf | geB^d | e2E2 :|
|:\
egbg | aedc | fdcB | ecBA |\
defd | cdec | dbBg | a2A2 :|
%-------------------------
%%begintext align
%% cast off two Cu: .|. lead to the top and cast off :|.
%% lead thro the 3d Cu: cast up and turn your Partner
%% .|: right and left at top :|:
%%endtext
%-------------------------
